X: 1430
T: The Scolding Wife
M:C|
L:1/8
N:"collected by F. O'Neill"
B:O'Neill's 1430
Z:"Transcribed by Bob Safranek, rjs@gsp.org"
K:Glyd
D2 (DE) FEFD | GFGA BGAF | D2 (DE) FEFG | AdcA  GECE  |
D2 (DE) FEFD | GFGA BGAc | d2 (dg) fdce | fd=cA AG G2 ||
fdcd    fgaf | gfga bgag | fdcd    fgag | fd=cA G2 G2 |
fdcd    fgaf | gfga bgag | bgag    fgag | fd=cA AG G2 |]


